svgs/document-uploaded.svg

<!-- Generated by IcoMoon.io -->
<svg version="1.1" xmlns="http://www.w3.org/2000/svg" width="1500" height="1500" viewBox="0 0 1500 1500">
<title>document-uploaded</title>
<path d="M675 150.001h-375.34l0.34 1199.997 899.839 0.001c0 0 0.167-437.123 0.164-675h-450.003c-41.421 0-75-33.58-75-75v-450zM825 525h374.999l-374.999-374.999v374.999zM299.662 0h548.048c20.692 0 49.427 11.962 63.791 26.332l412.176 412.332c14.537 14.543 26.323 43.434 26.323 63.781v847.61c0 82.812-67.088 149.944-150.16 149.944h-899.679c-82.931 0-150.16-67.367-150.16-150.001v-1199.997c0-82.844 67.191-150.001 149.66-150.001zM375.001 1124.999c0-41.421 33.683-75 74.654-75h600.69c41.231 0 74.654 33.29 74.654 75 0 41.421-33.683 75-74.654 75h-600.69c-41.231 0-74.654-33.29-74.654-75zM375.001 900c0-41.421 33.823-75 75.321-75h299.36c41.599 0 75.321 33.29 75.321 75 0 41.421-33.823 75-75.321 75h-299.36c-41.599 0-75.321-33.29-75.321-75z"></path>
</svg>

<svg xmlns="http://www.w3.org/2000/svg" width="1500" height="1500" viewBox="0 0 1500 1500"><path d="M675 150.001H299.66l.34 1199.997 899.839.001s.167-437.123.164-675H750c-41.421 0-75-33.58-75-75v-450zM825 525h374.999L825 150.001V525zM299.662 0H847.71c20.692 0 49.427 11.962 63.791 26.332l412.176 412.332c14.537 14.543 26.323 43.434 26.323 63.781v847.61c0 82.812-67.088 149.944-150.16 149.944H300.161c-82.931 0-150.16-67.367-150.16-150.001V150.001C150.001 67.157 217.192 0 299.661 0zm75.339 1124.999c0-41.421 33.683-75 74.654-75h600.69c41.231 0 74.654 33.29 74.654 75 0 41.421-33.683 75-74.654 75h-600.69c-41.231 0-74.654-33.29-74.654-75zm0-224.999c0-41.421 33.823-75 75.321-75h299.36c41.599 0 75.321 33.29 75.321 75 0 41.421-33.823 75-75.321 75h-299.36c-41.599 0-75.321-33.29-75.321-75z"/></svg>
